X:1
T:Sons of Labour
T:Sons of Labour
T:Courtesy of the Cyber Hymnal (http://www.cyberhymnal.org)
T:Courtesy of the Cyber Hymnal (http://www.cyberhymnal.org)
Z:Courtesy of the Cyber Hymnal (http://www.cyberhymnal.org)
%%score { ( 1 2 ) ( 3 4 ) }
L:1/8
Q:1/4=115
M:2/4
K:D
V:1 treble nm="P1"
V:2 treble 
V:3 bass nm="P2"
V:4 bass 
V:1
"^Editor: John Henry Fowler""^( Revision: 12-3-2007 )" F3 E |[M:4/4] G2 F2 E2 D2 | B2 A2 A2 G2 | %3
"^( 1889 )" F2 A2 d2 d2 | c4 c3 c | e2 d2 c2 B2 |"^John Stainer""^( 1840 - 1901 )" B2 A2 A2 A2 | %7
 d2 F2 A2 G2 | E4 F2 F2 | F2 B2 A2 ^G2 | ^G2 F2 A2 d2 | c2 B2 A2 B2 | c4 c3 c | c2 e2 d2 c2 | %14
 B2 c2 d2 G2 | A2 B2 F2 E2 |[M:2/4] D4 |] %17
V:2
 D3 D |[M:4/4] D2 D2 C2 D2 | D2 D2 D2 C2 | D2 E2 F2 E2 | E4 E3 E | E2 F2 G2 F2 | E2 G2 F2 E2 | %7
 D2 D2 F2 E2 | C4 F2 E2 | D2 F2 F2 ^E2 | ^E2 F2 D2 D2 | E2 F2 E2 D2 | C4 E2 ^E2 | F2 F2 F2 E2 | %14
 D2 E2 D2 D2 | D2 D2 D2 C2 |[M:2/4] D4 |] %17
V:3
 A,3 G, |[M:4/4] B,2 A,2 G,2 A,2 | G,2 A,2 B,2 A,2 | A,2 A,2 A,2 ^G,2 | A,4 A,3 A, | %5
 B,2 A,2 G,2 B,2 | E2 E2 D2 A,2 | F,2 A,2 B,2 B,2 | A,4 A,2 ^A,2 | B,2 D2 C2 B,2 | %10
 B,2 A,2 A,2 A,2 | A,2 D2 C2 ^G,2 | %12
"^1.  Sons of labor, dear to Jesus,To your homes and work again;Go with brave hearts back to duty,Face the peril, bear the pain.Be your dwellings ne’er so lowly,Yet remember, by your bed,That the Son of God most holyHad not where to lay His head.2.  Sons of labor, think of JesusAs you rest your homes within,Think of that sweet Babe of MaryIn the stable of the inn.Think how in the sacred storyJesus took a humble grade,And the Lord of Life and GloryWorked with Joseph at His trade.3.  Sons of labor, pray to Jesus;Oh, how Jesus prayed for you!In the moonlight, on the mountain,Where the shimmering olives grew.When you rise up at the dawning,Ere in toil you wend your way,Pray, as He prayed, in the morning,Long before the break of day." A,4 C2 B,2 | %13
 ^A,2 A,2 B,2 A,2 | %14
 B,2 ^A,2"^4.  Sons of labor, be like Jesus,Undefilèd, chaste, and pure;And, though Satan tempt you sorely,By His grace you shall endure.Husband, father, son and brother,Be ye gentle, just and true—Be ye kind to one another,As the Lord is kind to you.5.  Sons of labor, seek for Jesus,Where He tells you ye shall find,In the children, ’mid the mourners,In the sick, poor, lame and blind—“Search the Scriptures,” He entreats you,“For of Me they testify”;Love His altar, where He meets you,Saying, “Fear not—It is I.”6.  Sons of labor, go to Jesus,In your sorrow, shame and loss;He is nearest, you are dearest,When you bravely bear His cross.Go to Him, who died to save you,And is still the sinner’s Friend;And the great love, which forgave you,Will forgive you to the end." B,2 G,2 | %15
 F,2 E,2 F,2 ^G,2 |[M:2/4] F,4 |] %17
V:4
 D,3 D, |[M:4/4] D,2 D,2 E,2 F,2 | G,2 F,2 E,2 A,2 | D,2 C,2 B,,2 E,2 | A,,4 A,3 A, | %5
 G,2 F,2 E,2 D,2 | C,2 C,2 D,2 C,2 | B,,2 A,,2 G,,2 G,,2 | A,,4 D,2 C,2 | B,,2 B,,2 C,2 C,2 | %10
 F,2 F,2 F,2 F,2 | E,2 D,2 E,2 E,2 | A,,4 A,2 G,2 | F,2 F,2 B,2 F,2 | G,2 F,2 B,,2 B,,2 | %15
 A,,2 ^G,,2 A,,2 A,,2 |[M:2/4] D,4 |] %17

